X: 11582
T: Edwin's
R: jig
M: 6/8
K: Gmajor
G2G DEG|DEG E2 D|G2G DEG|A3 AGF|
G2G DEG|DEG E2 D|B3 BAG|1 A3 A3:|2 A3 ABd||
e2 e edB|deg e2 d|c2 c BAG|A6|
e2 e edB|deg e2 d|c2 c BAG|A6:|

